docs/local/img/sprites/Twitch.svg

<svg width="32" height="32" viewBox="0 0 32 32" fill="none" xmlns="http://www.w3.org/2000/svg">
<path d="M27.4295 14.8571L22.8581 19.4285H18.2867L14.2867 23.4285V19.4285H9.1438V2.28564H27.4295V14.8571Z" fill="white"/>
<path d="M8.00091 0L2.28662 5.71429V26.2857H9.14376V32L14.858 26.2857H19.4295L29.7152 16V0H8.00091ZM27.4295 14.8571L22.858 19.4286H18.2866L14.2866 23.4286V19.4286H9.14376V2.28571H27.4295V14.8571Z" fill="#9146FF"/>
<path d="M24.0009 6.28564H21.7152V13.1428H24.0009V6.28564Z" fill="#9146FF"/>
<path d="M17.7152 6.28564H15.4294V13.1428H17.7152V6.28564Z" fill="#9146FF"/>
</svg>

<svg width="32" height="32" viewBox="0 0 32 32" fill="none" xmlns="http://www.w3.org/2000/svg"><path d="M27.43 14.857l-4.572 4.572h-4.571l-4 4v-4H9.144V2.285h18.285v12.571z" fill="#fff"/><path d="M8 0L2.288 5.714v20.572h6.857V32l5.714-5.714h4.572L29.715 16V0H8.001zm19.43 14.857l-4.572 4.572h-4.571l-4 4v-4H9.144V2.286h18.285v12.571z" fill="#9146FF"/><path d="M24 6.286h-2.285v6.857h2.286V6.286zm-6.285 0H15.43v6.857h2.286V6.286z" fill="#9146FF"/></svg>
